X:1
T:Svenska kungshymnen
T:Svenska kungshymnen
T:C.V.A. Strandberg
T:O. Lindblad
C:O. Lindblad
%%score [ 1 2 3 4 ]
L:1/8
Q:1/4=92
M:4/4
K:Eb
V:1 treble-8 nm="T1"
V:2 treble-8 nm="T2"
V:3 bass nm="B1"
V:4 bass nm="B2"
V:1
"^Ej fort, men kraftigt"!mf! B2 | G2 B2 e2 e2 | d3 c B2!<(! B2 | a2!<)!!>(! g2 f2 e2!>)! | %4
w: Ur|sven- ska hjär- tans|djup en gång en|sam- fälld och en|
!>(! g3 f f2!>)!"^dim." e2 | d2 c2 B2 (cd) | e4 z2 ::!f! B2 |!>(! d3 e!>)! f2 B2 | %9
w: en- kel sång, som|går til kun- gen _|fram!|Var|ho- nom tro- fast|
!>(! g3 f!>)! e2!p! e2 | d3 d e2 c2 | B3 A G2"^cresc." B2 | d3 e f2 B2 |!f!!>(! g2 f2 e2 d2!>)! | %14
w: och hans ätt, gör|kro- nan på hans|hjäs- sa lätt, och|all din tro till|ho- nom sätt, du|
"^dim." c3 f e2 d2 | e4 z2 :| %16
w: folk af frej- dad|stam!|
V:2
!mf! B2 | G2 B2 B2 =A2 | B3 =A B2!<(! B2 | f2!<)!!>(! e2 e2 e2!>)! |!>(! e3 d d2!>)!"^dim." c2 | %5
w: Ur|sven- ska hjär- tans|djup en gång en|sam- fälld och en|en- kel sång, som|
 B2 A2 G2 A2 | G4 z2 ::!f! B2 |!>(! B3 B!>)! B2 B2 |!>(! B3 B!>)! B2!p! B2 | A3 A G2 G2 | %11
w: går til kun- gen|fram!|Var|ho- nom tro- fast|och hans ätt, gör|kro- nan på hans|
 A3 F G2"^cresc." B2 | B3 B B2 B2 |!f!!>(! B2 =B2 c2 _B2!>)! |"^dim." A3 c B2 B2 | B4 z2 :| %16
w: hjäs- sa lätt, och|all din tro till|ho- nom sätt, du|folk af frej- dad|stam!|
V:3
!mf! B,2 | E,2 F,2 G,2 F,2 | F,3 E, D,2!<(! B,2 | B,2!<)!!>(! B,2 C2 C2!>)! | %4
w: Ur|sven- ska hjär- tans|djup en gång en|sam- fälld och en|
!>(! B,3 B, B,2!>)!"^dim." G,2 | G,2 E,2 E,2 F,2 | E,4 z2 ::!f! B,2 |!>(! A,3 G,!>)! F,2 B,2 | %9
w: en- kel sång, som|går til kun- gen|fram!|Var|ho- nom tro- fast|
!>(! G,3 A,!>)! B,2!p! G,2 | F,3 F, E,2 E,2 | F,3 D, E,2"^cresc." B,2 | A,3 G, F,2 B,2 | %13
w: och hans ätt, gör|kro- nan på hans|hjäs- sa lätt, och|all din tro till|
!f!!>(! G,2 G,2 G,2 G,2!>)! |"^dim." E,3 A, G,2 F,2 | G,4 z2 :| %16
w: ho- nom sätt, du|folk af frej- dad|stam!|
V:4
!mf! B,,2 | E,2 D,2 C,2 C,2 | B,,3 B,, B,,2!<(! B,,2 | D,2!<)!!>(! E,2 A,2 =A,2!>)! | %4
w: Ur|sven- ska hjär- tans|djup en gång en|sam- fälld och en|
!>(! B,3 B,, B,,2!>)!"^dim." C,2 | G,,2 A,,2 B,,2 B,,2 | E,,4 z2 ::!f! B,2 | %8
w: en- kel sång, som|går til kun- gen|fram!|Var|
!>(! F,3 E,!>)! D,2 B,2 |!>(! E,3 F,!>)! G,2!p! B,,2 | =B,,3 B,, C,2 C,2 | %11
w: ho- nom tro- fast|och hans ätt, gör|kro- nan på hans|
 D,3 _B,, E,2"^cresc." B,2 | F,3 E, D,2 B,2 |!f!!>(! E,2 D,2 C,2 G,,2!>)! | %14
w: hjäs- sa lätt, och|all din tro till|ho- nom sätt, du|
"^dim." A,,3 A,, B,,2 B,,2 | E,4 z2 :| %16
w: folk af frej- dad|stam!|

